!!!COM: Cao, Nguyen Van
!!!CDT: 1923-1995
!!!OTL: National Anthem, Vietnam
!!!ENC: Davis, Matthew J.
!!Vocal Line Only
**kern
*clefG2
*k[b-e-]
*B-:
*M4/4
=1-
2r
8.r
16f
8.g
16f
==!|:2
4b-
2b-
8cc
8b-
=3
4dd
2dd
8cc
8b-
=4
4g
4b-
8b-
8g
8f
8d
=5
2.f
8dd
8cc
=6
4dd
4dd
4dd
8cc
8b-
=7
2.ff
8dd
8b-
=8
4cc
4cc
4dd
8a
8f
=9
2.b-
8dd
8ee-
=10
4ff
4ff
4.gg
8ff
=11
2dd
4.dd
8cc
=12
4b-
4f
4a
8a
8cc
=13
2.b-
8dd
8ee-
=14
4ff
4ff
4.gg
8ff
=15
2cc
4.dd
8cc
=16
4b-
4b-
2f
=17
2ff
[2dd
=18
4dd]
4b-
2gg
=19
[2ff
8ff]
8dd
8cc
8f
=20
4cc
2cc
4dd
=21
!First Ending
2b-
8.r
16f
8.g
16f
==:|!22
!Second Ending
1b-
==|!
*-
